Newaita-dark/actions/symbolic/org.gnome.Lollypop-equalizer-symbolic.svg

<svg height="16" viewBox="0 0 16 16" width="16" xmlns="http://www.w3.org/2000/svg"><g fill="#e0e0e0"><path d="m2.316406 8.0625h1.320313c.183593 0 .332031.148438.332031.332031v5.292969c0 .179688-.148438.328125-.332031.328125h-1.320313c-.183594 0-.332031-.148437-.332031-.328125v-5.292969c0-.183593.148437-.332031.332031-.332031zm0 0"/><path d="m8.929688 4.753906h1.324218c.183594 0 .332032.148438.332032.332032v8.601562c0 .179688-.148438.328125-.332032.328125h-1.324218c-.183594 0-.328126-.148437-.328126-.328125v-8.601562c0-.183594.144532-.332032.328126-.332032zm0 0"/><path d="m5.621094 2.109375h1.324218c.183594 0 .332032.148437.332032.332031v11.246094c0 .179688-.148438.328125-.332032.328125h-1.324218c-.179688 0-.328125-.148437-.328125-.328125v-11.246094c0-.183594.148437-.332031.328125-.332031zm0 0"/><path d="m12.238281 9.71875h1.324219c.179688 0 .328125.144531.328125.328125v3.640625c0 .179688-.148437.328125-.328125.328125h-1.324219c-.183593 0-.332031-.148437-.332031-.328125v-3.640625c0-.183594.148438-.328125.332031-.328125zm0 0"/></g></svg>

<?xml version="1.0" encoding="UTF-8"?>
<svg xmlns="http://www.w3.org/2000/svg" xmlns:xlink="http://www.w3.org/1999/xlink" width="16px" height="16px" viewBox="0 0 16 16" version="1.1">
<g id="surface1">
<path style=" stroke:none;fill-rule:nonzero;fill:rgb(87.843138%,87.843138%,87.843138%);fill-opacity:1;" d="M 2.316406 8.0625 L 3.636719 8.0625 C 3.820312 8.0625 3.96875 8.210938 3.96875 8.394531 L 3.96875 13.6875 C 3.96875 13.867188 3.820312 14.015625 3.636719 14.015625 L 2.316406 14.015625 C 2.132812 14.015625 1.984375 13.867188 1.984375 13.6875 L 1.984375 8.394531 C 1.984375 8.210938 2.132812 8.0625 2.316406 8.0625 Z M 2.316406 8.0625 "/>
<path style=" stroke:none;fill-rule:nonzero;fill:rgb(87.843138%,87.843138%,87.843138%);fill-opacity:1;" d="M 8.929688 4.753906 L 10.253906 4.753906 C 10.4375 4.753906 10.585938 4.902344 10.585938 5.085938 L 10.585938 13.6875 C 10.585938 13.867188 10.4375 14.015625 10.253906 14.015625 L 8.929688 14.015625 C 8.746094 14.015625 8.601562 13.867188 8.601562 13.6875 L 8.601562 5.085938 C 8.601562 4.902344 8.746094 4.753906 8.929688 4.753906 Z M 8.929688 4.753906 "/>
<path style=" stroke:none;fill-rule:nonzero;fill:rgb(87.843138%,87.843138%,87.843138%);fill-opacity:1;" d="M 5.621094 2.109375 L 6.945312 2.109375 C 7.128906 2.109375 7.277344 2.257812 7.277344 2.441406 L 7.277344 13.6875 C 7.277344 13.867188 7.128906 14.015625 6.945312 14.015625 L 5.621094 14.015625 C 5.441406 14.015625 5.292969 13.867188 5.292969 13.6875 L 5.292969 2.441406 C 5.292969 2.257812 5.441406 2.109375 5.621094 2.109375 Z M 5.621094 2.109375 "/>
<path style=" stroke:none;fill-rule:nonzero;fill:rgb(87.843138%,87.843138%,87.843138%);fill-opacity:1;" d="M 12.238281 9.71875 L 13.5625 9.71875 C 13.742188 9.71875 13.890625 9.863281 13.890625 10.046875 L 13.890625 13.6875 C 13.890625 13.867188 13.742188 14.015625 13.5625 14.015625 L 12.238281 14.015625 C 12.054688 14.015625 11.90625 13.867188 11.90625 13.6875 L 11.90625 10.046875 C 11.90625 9.863281 12.054688 9.71875 12.238281 9.71875 Z M 12.238281 9.71875 "/>
</g>
</svg>
